X: 38703
T: Strawberry Tree, The
R: reel
M: 4/4
K: Dmajor
|:(3ABc|d2 FB A2 FA|Bcde fdBc|d2 FB a2 gb|egfe d2 (3ABc|
d2 FG A2 FA|Bcde fdBc|d2 FB a2 gb|gf (3efe d2:|
(3ABc|defg afda|g2 g2 edBA|defg afda|gefe d2 (3ABc|
defg afda|g2 g2 edBA|defg af (3ded|gefe d2 (3ABc|
defg afda|g2 g2 edBA|defg afda|gefe d2 (3ABc|
defg afda|gefe fdBc|defg agaf|egfe d2z2|

